;FLAVOR:Marlin
;TIME:3805
;Filament used: 2.04529m
;Layer height: 0.1
;Generated with Cura_SteamEngine DEV
M104 S200
M109 S200
M82 ;absolute extrusion mode
G28 ;Home
G1 Z15.0 F6000 ;Move the platform down 15mm
;Prime the extruder
G92 E0
G1 F200 E3
G92 E0
G92 E0
G1 F1500 E-6.5
;LAYER_COUNT:50
;LAYER:-7
M107
G0 F7200 X75.268 Y56.421 Z0.24
G1 F1500 E0
G1 F1125 X75.92 Y55.591 E0.08425
G1 X76.276 Y55.186 E0.12729
G1 X76.589 Y54.843 E0.16436
G1 X77.255 Y54.164 E0.24028
G1 X77.381 Y54.045 E0.25412
G1 X78.184 Y53.345 E0.33915
G1 X78.936 Y52.767 E0.41486
G1 X79.701 Y52.229 E0.48952
G1 X79.854 Y52.13 E0.50406
G1 X80.754 Y51.595 E0.58764
G1 X81.239 Y51.342 E0.63131
G1 X81.668 Y51.13 E0.6695
G1 X82.504 Y50.749 E0.74284
G1 X82.675 Y50.679 E0.75759
G1 X83.675 Y50.316 E0.84251
G1 X84.163 Y50.167 E0.88324
G1 X84.637 Y50.033 E0.92256
G1 X85.541 Y49.813 E0.99683
G1 X85.748 Y49.77 E1.0137
G1 X86.603 Y49.625 E1.08293
G1 X87.203 Y49.554 E1.13116
G1 X87.596 Y49.517 E1.16267
G1 X89.012 Y49.447 E1.27584
G1 X120.888 Y49.445 E3.82032
G1 X122.269 Y49.507 E3.93066
G1 X122.736 Y49.548 E3.96809
G1 X123.77 Y49.682 E4.05131
G1 X124.799 Y49.889 E4.1351
G1 X125.408 Y50.045 E4.18528
G1 X125.885 Y50.183 E4.22492
G1 X126.771 Y50.469 E4.29924
G1 X126.948 Y50.534 E4.31429
G1 X127.774 Y50.87 E4.38547
G1 X128.43 Y51.176 E4.44325
G1 X128.792 Y51.358 E4.47559
G1 X129.789 Y51.906 E4.56641
G1 X130.678 Y52.484 E4.65105
G1 X131.432 Y53.043 E4.72598
G1 X132.21 Y53.678 E4.80614
G1 X132.352 Y53.803 E4.82124
G1 X133.104 Y54.519 E4.90413
G1 X133.431 Y54.865 E4.94213
G1 X133.772 Y55.241 E4.98265
G1 X134.362 Y55.938 E5.05554
G1 X134.485 Y56.095 E5.07146
G1 X135.078 Y56.912 E5.15205
G1 X135.643 Y57.808 E5.2366
G1 X136.091 Y58.597 E5.30903
G1 X136.18 Y58.768 E5.32442
G1 X136.618 Y59.696 E5.40633
G1 X136.814 Y60.175 E5.44764
G1 X136.997 Y60.654 E5.48857
G1 X137.299 Y61.529 E5.56246
G1 X137.345 Y61.683 E5.57529
G1 X137.612 Y62.696 E5.65892
G1 X137.711 Y63.177 E5.69812
G1 X137.8 Y63.655 E5.73693
G1 X137.958 Y64.75 E5.82524
G1 X138.035 Y65.815 E5.91048
G1 X138.045 Y66.409 E5.9579
G1 X138.041 Y66.869 E5.99462
G1 X137.995 Y67.942 E6.08035
G1 X137.871 Y69.017 E6.16673
G1 X137.714 Y69.894 E6.23785
G1 X137.487 Y70.899 E6.32009
G1 X137.445 Y71.058 E6.33322
G1 X137.17 Y71.957 E6.40826
G1 X136.968 Y72.518 E6.45586
G1 X136.784 Y72.985 E6.49593
G1 X136.222 Y74.245 E6.60606
G1 X133.258 Y80.175 E7.13525
G1 X132.996 Y80.792 E7.18876
G1 X132.811 Y81.45 E7.24332
G1 X132.712 Y82.125 E7.29778
G1 X132.696 Y82.81 E7.35247
G1 X132.725 Y83.059 E7.37248
G1 X132.699 Y83.059 E7.37456
G1 X132.799 Y83.655 E7.4228
G1 X132.958 Y84.75 E7.51112
G1 X133.035 Y85.815 E7.59636
G1 X133.045 Y86.409 E7.64378
G1 X133.041 Y86.869 E7.6805
G1 X132.995 Y87.942 E7.76623
G1 X132.871 Y89.017 E7.85261
G1 X132.714 Y89.894 E7.92373
G1 X132.487 Y90.899 E8.00598
G1 X132.445 Y91.058 E8.0191
G1 X132.17 Y91.957 E8.09415
G1 X131.968 Y92.518 E8.14174
G1 X131.784 Y92.985 E8.18181
G1 X131.222 Y94.245 E8.29194
G1 X128.258 Y100.175 E8.82114
G1 X127.996 Y100.792 E8.87464
G1 X127.811 Y101.45 E8.9292
G1 X127.712 Y102.125 E8.98366
G1 X127.696 Y102.81 E9.03836
G1 X127.725 Y103.059 E9.05837
G1 X127.699 Y103.059 E9.06044
G1 X127.799 Y103.655 E9.10868
G1 X127.958 Y104.75 E9.19701
G1 X128.035 Y105.815 E9.28224
G1 X128.045 Y106.409 E9.32967
G1 X128.041 Y106.869 E9.36639
G1 X127.995 Y107.942 E9.45212
G1 X127.871 Y109.017 E9.5385
G1 X127.714 Y109.894 E9.60961
G1 X127.487 Y110.899 E9.69186
G1 X127.445 Y111.058 E9.70499
G1 X127.17 Y111.957 E9.78003
G1 X126.968 Y112.518 E9.82763
G1 X126.784 Y112.985 E9.86769
G1 X126.222 Y114.245 E9.97782
G1 X120.284 Y126.12 E11.03764
G1 X119.613 Y127.317 E11.14718
G1 X119.401 Y127.658 E11.17923
G1 X118.837 Y128.495 E11.2598
G1 X118.199 Y129.317 E11.34286
G1 X118.081 Y129.459 E11.3576
G1 X117.766 Y129.818 E11.39572
G1 X117.439 Y130.174 E11.43431
G1 X116.769 Y130.855 E11.51057
G1 X116.651 Y130.966 E11.5235
G1 X115.862 Y131.656 E11.60717
G1 X115.476 Y131.959 E11.64634
G1 X115.089 Y132.249 E11.68494
G1 X114.184 Y132.877 E11.77287
G1 X113.254 Y133.425 E11.85904
G1 X112.872 Y133.625 E11.89346
G1 X112.358 Y133.879 E11.93922
G1 X111.51 Y134.264 E12.01356
G1 X111.359 Y134.325 E12.02656
G1 X110.386 Y134.68 E12.10924
G1 X109.826 Y134.849 E12.15593
G1 X109.379 Y134.973 E12.19296
G1 X108.505 Y135.186 E12.26477
G1 X108.269 Y135.232 E12.28396
G1 X106.745 Y135.456 E12.40692
G1 X106.344 Y135.492 E12.43906
G1 X105.391 Y135.547 E12.51526
G1 X104.293 Y135.535 E12.60291
G1 X103.592 Y135.488 E12.65899
G1 X103.156 Y135.446 E12.69396
G1 X102.213 Y135.322 E12.76988
G1 X102.023 Y135.288 E12.78529
G1 X100.521 Y134.947 E12.90824
G1 X100.067 Y134.816 E12.94595
G1 X99.193 Y134.536 E13.01921
G1 X98.182 Y134.132 E13.10612
G1 X97.595 Y133.858 E13.15783
G1 X97.154 Y133.638 E13.19717
G1 X96.318 Y133.183 E13.27315
G1 X95.406 Y132.604 E13.35938
G1 X94.879 Y132.227 E13.4111
G1 X94.503 Y131.942 E13.44876
G1 X93.655 Y131.246 E13.53634
G1 X92.857 Y130.486 E13.6243
G1 X92.521 Y130.132 E13.66326
G1 X92.191 Y129.767 E13.70254
G1 X91.605 Y129.076 E13.77486
G1 X91.485 Y128.925 E13.79026
G1 X90.866 Y128.071 E13.87445
G1 X90.348 Y127.251 E13.95188
G1 X89.686 Y126.062 E14.06051
G1 X83.723 Y114.128 E15.12543
G1 X83.18 Y112.899 E15.23268
G1 X83.016 Y112.473 E15.26912
G1 X82.711 Y111.589 E15.34377
G1 X82.661 Y111.425 E15.35745
G1 X82.395 Y110.42 E15.44044
G1 X82.292 Y109.927 E15.48064
G1 X82.209 Y109.484 E15.51662
G1 X82.061 Y108.506 E15.59558
G1 X82.046 Y108.373 E15.60626
G1 X81.974 Y107.443 E15.68072
G1 X81.956 Y106.772 E15.7343
G1 X81.955 Y106.363 E15.76695
G1 X82.001 Y105.201 E15.85978
G1 X82.117 Y104.16 E15.94339
G1 X82.216 Y103.566 E15.99146
G1 X82.298 Y102.907 E16.04447
G1 X82.296 Y102.225 E16.09891
G1 X82.208 Y101.547 E16.15348
G1 X82.035 Y100.886 E16.20802
G1 X81.743 Y100.177 E16.26923
G1 X78.723 Y94.128 E16.80892
G1 X78.18 Y92.899 E16.91617
G1 X78.016 Y92.473 E16.95261
G1 X77.711 Y91.589 E17.02726
G1 X77.661 Y91.425 E17.04095
G1 X77.395 Y90.42 E17.12393
G1 X77.292 Y89.927 E17.16413
G1 X77.209 Y89.484 E17.20011
G1 X77.061 Y88.506 E17.27907
G1 X77.046 Y88.373 E17.28975
G1 X76.974 Y87.443 E17.36421
G1 X76.956 Y86.772 E17.41779
G1 X76.955 Y86.363 E17.45044
G1 X77.001 Y85.201 E17.54327
G1 X77.117 Y84.16 E17.62688
G1 X77.216 Y83.566 E17.67495
G1 X77.298 Y82.907 E17.72796
G1 X77.296 Y82.225 E17.7824
G1 X77.208 Y81.547 E17.83698
G1 X77.035 Y80.886 E17.89152
G1 X76.743 Y80.177 E17.95272
G1 X73.723 Y74.128 E18.49242
G1 X73.18 Y72.899 E18.59967
G1 X73.016 Y72.473 E18.63611
G1 X72.711 Y71.589 E18.71075
G1 X72.661 Y71.425 E18.72444
G1 X72.395 Y70.42 E18.80742
G1 X72.292 Y69.927 E18.84763
G1 X72.209 Y69.484 E18.88361
G1 X72.061 Y68.506 E18.96256
G1 X72.046 Y68.373 E18.97325
G1 X71.974 Y67.443 E19.0477
G1 X71.956 Y66.772 E19.10129
G1 X71.955 Y66.363 E19.13393
G1 X72.001 Y65.201 E19.22676
G1 X72.117 Y64.16 E19.31037
G1 X72.279 Y63.232 E19.38557
G1 X72.511 Y62.195 E19.4704
G1 X72.815 Y61.176 E19.55528
G1 X73.02 Y60.605 E19.60371
G1 X73.203 Y60.137 E19.64382
G1 X73.635 Y59.138 E19.7307
G1 X74.129 Y58.193 E19.81582
G1 X74.388 Y57.754 E19.85651
G1 X74.623 Y57.374 E19.89217
G1 X75.268 Y56.421 E19.98403
G0 F7200 X75.2 Y56.521
G1 F1125 X75.2 Y77.086 E21.62562
G0 F7200 X76.8 Y80.315
G1 F1125 X76.8 Y54.627 E23.67614
G0 F7200 X78.4 Y53.178
G1 F1125 X78.4 Y93.396 E26.88652
G0 F7200 X80 Y96.685
G1 F1125 X80 Y52.043 E30.45004
G0 F7200 X81.6 Y51.163
G1 F1125 X81.6 Y99.89 E34.33964
G0 F7200 X83.2 Y112.944
G1 F1125 X83.2 Y50.488 E39.32514
G0 F7200 X84.8 Y49.993
G1 F1125 X84.8 Y116.283 E44.6167
G0 F7200 X86.4 Y119.485
G1 F1125 X86.4 Y49.659 E50.19051
G0 F7200 X88 Y49.497
G1 F1125 X88 Y122.687 E56.03285
G0 F7200 X89.6 Y125.889
G1 F1125 X89.6 Y49.446 E62.13487
G0 F7200 X91.2 Y49.446
G1 F1125 X91.2 Y128.531 E68.44777
G0 F7200 X92.8 Y130.425
G1 F1125 X92.8 Y49.446 E74.91187
G0 F7200 X94.4 Y49.446
G1 F1125 X94.4 Y131.857 E81.49027
G0 F7200 X96 Y132.981
G1 F1125 X96 Y49.446 E88.15839
G0 F7200 X97.6 Y49.446
G1 F1125 X97.6 Y133.86 E94.89668
G0 F7200 X99.2 Y134.538
G1 F1125 X99.2 Y49.446 E101.6891
G0 F7200 X100.8 Y49.446
G1 F1125 X100.8 Y135.01 E108.51918
G0 F7200 X102.4 Y135.346
G1 F1125 X102.4 Y49.446 E115.37609
G0 F7200 X104 Y49.446
G1 F1125 X104 Y135.515 E122.24649
G0 F7200 X105.6 Y135.535
G1 F1125 X105.6 Y49.445 E129.11857
G0 F7200 X107.2 Y49.445
G1 F1125 X107.2 Y135.39 E135.97907
G0 F7200 X108.8 Y135.115
G1 F1125 X108.8 Y49.445 E142.81762
G0 F7200 X110.4 Y49.445
G1 F1125 X110.4 Y134.675 E149.62105
G0 F7200 X112 Y134.042
G1 F1125 X112 Y49.445 E156.37395
G0 F7200 X113.6 Y49.445
G1 F1125 X113.6 Y133.222 E163.06139
G0 F7200 X115.2 Y132.166
G1 F1125 X115.2 Y49.445 E169.66454
G0 F7200 X116.8 Y49.445
G1 F1125 X116.8 Y130.824 E176.16056
G0 F7200 X118.4 Y129.059
G1 F1125 X118.4 Y49.445 E182.51569
G0 F7200 X120 Y49.445
G1 F1125 X120 Y126.627 E188.67669
G0 F7200 X121.6 Y123.489
G1 F1125 X121.6 Y49.477 E194.58465
G0 F7200 X123.2 Y49.609
G1 F1125 X123.2 Y120.289 E200.22664
G0 F7200 X124.8 Y117.089
G1 F1125 X124.8 Y49.89 E205.59075
G0 F7200 X126.4 Y50.35
G1 F1125 X126.4 Y113.846 E210.65928
G0 F7200 X128 Y107.826
G1 F1125 X128 Y105.331 E210.85844
G0 F7200 X128 Y100.783
G1 F1125 X128 Y50.976 E214.83425
G0 F7200 X129.6 Y51.803
G1 F1125 X129.6 Y97.491 E218.48126
G0 F7200 X131.2 Y94.29
G1 F1125 X131.2 Y52.871 E221.78751
G0 F7200 X132.8 Y54.23
G1 F1125 X132.8 Y81.525 E223.96631
G0 F7200 X132.8 Y83.662
G1 F1125 X132.8 Y89.414 E224.42546
G0 F7200 X133.172 Y82.165
G0 X133.244 Y81.661
G0 X134.4 Y77.891
G1 F1125 X134.4 Y55.987 E226.17393
G0 F7200 X136 Y58.437
G1 F1125 X136 Y74.69 E227.47132
G0 F7200 X137.6 Y70.399
G1 F1125 X137.6 Y62.651 E228.0898
G0 F7200 X73.6 Y59.218
G1 F1125 X73.6 Y73.849 E229.2577
G0 F7200 X72 Y67.778
G1 F1125 X72 Y65.226 E229.46142
G0 F7200 X129.565 Y51.783
;TIME_ELAPSED:164.949873
;LAYER:-6
G0 X129.565 Y51.783 Z0.39
;TYPE:SUPPORT
G1 F1125 X128.791 Y51.357 E229.50549
G1 X128.428 Y51.176 E229.52573
G1 X127.773 Y50.869 E229.56182
G1 X126.946 Y50.534 E229.60634
G1 X126.875 Y50.507 E229.61013
G1 X136.98 Y60.613 E230.32312
G1 X136.996 Y60.654 E230.32532
G1 X137.298 Y61.528 E230.37145
G1 X137.344 Y61.683 E230.37952
G1 X137.598 Y62.644 E230.42911
G1 X124.858 Y49.904 E231.32799
G1 X124.798 Y49.889 E231.33107
G1 X123.769 Y49.682 E231.38344
G1 X123.139 Y49.6 E231.41513
G1 X137.901 Y64.362 E232.45667
G1 X137.957 Y64.75 E232.47623
G1 X138.034 Y65.814 E232.52945
G1 X138.036 Y65.911 E232.53429
G1 X121.602 Y49.477 E233.6938
G1 X120.886 Y49.445 E233.72956
G1 X120.156 Y49.445 E233.76598
G1 X138.021 Y67.31 E235.02645
G1 X137.994 Y67.942 E235.05801
G1 X137.916 Y68.619 E235.09201
G1 X118.742 Y49.445 E236.44484
G1 X117.328 Y49.445 E236.51538
G1 X137.723 Y69.84 E237.95436
G1 X137.713 Y69.894 E237.9571
G1 X137.486 Y70.899 E238.0085
G1 X137.461 Y70.993 E238.01335
G1 X115.913 Y49.445 E239.53368
G1 X114.499 Y49.445 E239.60423
G1 X137.127 Y72.073 E241.20075
G1 X136.967 Y72.517 E241.2243
G1 X136.783 Y72.985 E241.24939
G1 X136.734 Y73.095 E241.2554
G1 X113.085 Y49.445 E242.924
G1 X111.671 Y49.445 E242.99454
G1 X136.298 Y74.072 E244.73211
G1 X136.221 Y74.244 E244.74151
G1 X135.833 Y75.021 E244.78484
G1 X110.257 Y49.446 E246.58933
G1 X108.843 Y49.446 E246.65987
G1 X135.362 Y75.965 E248.53093
G1 X134.89 Y76.907 E248.5835
G1 X107.429 Y49.446 E250.52102
G1 X106.015 Y49.446 E250.59156
G1 X134.419 Y77.851 E252.59566
G1 X133.947 Y78.793 E252.64822
G1 X104.6 Y49.446 E254.71881
G1 X103.186 Y49.446 E254.78936
G1 X133.476 Y79.736 E256.92648
G1 X133.257 Y80.174 E256.95091
G1 X133.031 Y80.705 E256.9797
G1 X101.772 Y49.446 E259.18519
G1 X100.358 Y49.446 E259.25574
G1 X132.752 Y81.841 E261.54134
G1 X132.711 Y82.124 E261.55561
G1 X132.694 Y82.809 E261.5898
G1 X132.724 Y83.058 E261.60231
G1 X132.697 Y83.058 E261.60366
G1 X132.726 Y83.229 E261.61231
G1 X98.944 Y49.447 E263.99581
G1 X97.53 Y49.447 E264.06636
G1 X132.967 Y84.883 E266.56659
G1 X133.034 Y85.815 E266.61321
G1 X133.044 Y86.375 E266.64115
G1 X96.116 Y49.447 E269.24662
G1 X94.702 Y49.447 E269.31717
G1 X133.003 Y87.748 E272.01951
G1 X132.994 Y87.942 E272.0292
G1 X132.87 Y89.016 E272.08314
G1 X132.868 Y89.028 E272.08374
G1 X93.287 Y49.447 E274.8764
G1 X91.873 Y49.447 E274.94694
G1 X132.641 Y90.214 E277.82331
G1 X132.486 Y90.898 E277.8583
G1 X132.444 Y91.057 E277.8665
G1 X132.356 Y91.344 E277.88148
G1 X90.459 Y49.447 E280.83754
G1 X89.045 Y49.447 E280.90808
G1 X132.006 Y92.408 E283.93922
G1 X131.967 Y92.517 E283.94499
G1 X131.783 Y92.984 E283.97003
G1 X131.593 Y93.41 E283.9933
G1 X87.696 Y49.512 E287.09051
G1 X87.594 Y49.517 E287.09561
G1 X87.201 Y49.554 E287.1153
G1 X86.602 Y49.624 E287.14539
G1 X86.424 Y49.655 E287.1544
G1 X131.152 Y94.383 E290.3102
G1 X130.681 Y95.326 E290.36279
G1 X85.241 Y49.886 E293.56883
G1 X84.636 Y50.033 E293.59989
G1 X84.161 Y50.167 E293.62451
G1 X84.12 Y50.179 E293.62664
G1 X130.21 Y96.269 E296.87854
G1 X129.739 Y97.212 E296.93113
G1 X83.064 Y50.537 E300.2243
G1 X82.674 Y50.679 E300.24501
G1 X82.503 Y50.749 E300.25423
G1 X82.063 Y50.95 E300.27836
G1 X129.267 Y98.154 E303.60886
G1 X128.795 Y99.097 E303.66147
G1 X81.108 Y51.41 E307.02605
G1 X80.753 Y51.594 E307.04599
G1 X80.205 Y51.92 E307.07781
G1 X128.325 Y100.04 E310.47293
G1 X128.257 Y100.175 E310.48047
G1 X127.995 Y100.791 E310.51387
G1 X127.922 Y101.052 E310.52739
G1 X79.347 Y52.477 E313.95462
G1 X78.935 Y52.767 E313.97976
G1 X78.533 Y53.077 E314.00508
G1 X127.708 Y102.252 E317.47464
G1 X127.695 Y102.809 E317.50244
G1 X127.723 Y103.058 E317.51494
G1 X127.698 Y103.058 E317.51619
G1 X127.798 Y103.654 E317.54634
G1 X127.815 Y103.774 E317.55239
G1 X77.758 Y53.716 E321.08421
G1 X77.38 Y54.044 E321.10918
G1 X77.254 Y54.164 E321.11786
G1 X77.025 Y54.397 E321.13416
G1 X128.002 Y105.375 E324.7309
G1 X128.033 Y105.814 E324.75286
G1 X128.044 Y106.409 E324.78255
G1 X128.04 Y106.827 E324.8034
G1 X76.334 Y55.121 E328.45154
G1 X76.274 Y55.186 E328.45595
G1 X75.919 Y55.591 E328.48282
G1 X75.685 Y55.886 E328.50161
G1 X127.968 Y108.169 E332.19045
G1 X127.87 Y109.017 E332.23304
G1 X127.799 Y109.414 E332.25316
G1 X75.08 Y56.695 E335.97277
G1 X74.621 Y57.373 E336.01362
G1 X74.515 Y57.545 E336.0237
G1 X127.557 Y110.586 E339.76607
G1 X127.486 Y110.899 E339.78208
G1 X127.444 Y111.058 E339.79028
G1 X127.25 Y111.693 E339.82341
G1 X73.997 Y58.44 E343.58069
G1 X73.633 Y59.138 E343.61997
G1 X73.527 Y59.384 E343.63333
G1 X126.881 Y112.738 E347.39775
G1 X126.783 Y112.985 E347.411
G1 X126.453 Y113.725 E347.45143
G1 X73.107 Y60.379 E351.21527
G1 X73.019 Y60.605 E351.22737
G1 X72.814 Y61.175 E351.2576
G1 X72.739 Y61.425 E351.27062
G1 X126 Y114.687 E355.0285
G1 X125.529 Y115.629 E355.08105
G1 X72.433 Y62.534 E358.82722
G1 X72.278 Y63.231 E358.86284
G1 X72.194 Y63.709 E358.88706
G1 X125.057 Y116.572 E362.61683
G1 X124.586 Y117.515 E362.66942
G1 X72.027 Y64.956 E366.37774
G1 X72 Y65.2 E366.38998
G1 X71.956 Y66.299 E366.44486
G1 X124.114 Y118.458 E370.12492
G1 X123.643 Y119.4 E370.17747
G1 X71.996 Y67.754 E373.82141
G1 X72.045 Y68.372 E373.85233
G1 X72.059 Y68.505 E373.85901
G1 X72.189 Y69.36 E373.90215
G1 X123.172 Y120.343 E377.49928
G1 X122.7 Y121.286 E377.55189
G1 X72.595 Y71.18 E381.0871
G1 X72.66 Y71.425 E381.09975
G1 X72.71 Y71.588 E381.10826
G1 X73.015 Y72.473 E381.15496
G1 X73.179 Y72.899 E381.17773
G1 X73.401 Y73.401 E381.20511
G1 X122.229 Y122.229 E384.65019
G1 X121.758 Y123.172 E384.70278
G1 X74.729 Y76.143 E388.02093
G1 X76.139 Y78.967 E388.17841
G1 X121.286 Y124.114 E391.36377
G1 X120.814 Y125.057 E391.41638
G1 X77.172 Y81.415 E394.49556
G1 X77.207 Y81.546 E394.50233
G1 X77.295 Y82.224 E394.53644
G1 X77.298 Y82.906 E394.57046
G1 X77.292 Y82.949 E394.57263
G1 X120.343 Y126 E397.61011
G1 X120.283 Y126.118 E397.61671
G1 X119.84 Y126.911 E397.66203
G1 X77.113 Y84.184 E400.67665
G1 X77.001 Y85.2 E400.72765
G1 X76.989 Y85.475 E400.74138
G1 X119.309 Y127.794 E403.72725
G1 X118.837 Y128.494 E403.76937
G1 X118.731 Y128.631 E403.77801
G1 X76.958 Y86.858 E406.72532
G1 X76.974 Y87.442 E406.75447
G1 X77.044 Y88.357 E406.80025
G1 X118.11 Y129.423 E409.69768
G1 X118.081 Y129.458 E409.69995
G1 X117.765 Y129.817 E409.72381
G1 X117.441 Y130.169 E409.74768
G1 X77.315 Y90.043 E412.57878
G1 X77.394 Y90.419 E412.59795
